X: 1379
T: Darling Nellie Gray
B: australian traditional tunes wiki
M:4/4
L:1/8
R: March
Q: 1/4=100
K:G
V:1 
B2c2|"G"d4d2e2|d2B2A2G2|"C"c2d2e2f2|"G"g4"D7"f2e2|"G"d4d2Bd|e2d2B2G2|"D"A8-|A2D2G2B2|
"G"d4d3e|d2(3BdBA2G2|"C"c2d2e2f2|g4f>g fe|"G"d>e dBG2B2|"D"d2c2A2F2|"G"G4 "C"G4|"G" G4"D7"A2B2|
"C"c4c3c|c4e2d2|"G"d2B2G3G|G4B2d2|d4B2d2|g2d2B2G2|"D"A8-|A4B2c2|
"G"d4d3e|d2B2A2G2|"C"c2d2e2f2|"G"g4"D7"f2e2|"G"d>e dBG2B2|"D"d2c2A2F2|"G"G4"C"G4|"G"G6z2||
% abcbook-tune_id 6342d53a8fc02a6a84c5c9fe


% abcbook-boost 0
% abcbook-tablature 
% abcbook-transpose 
% abcbook-lastupdated 1665324362056
% abcbook-soundfonts 
% abcbook-repeats 1
% NFF Book 2020

